!!!COM: Palestrina, Giovanni Perluigi da
!!!OPR: Missa Regina coeli (1600)
!!!OMD: Credo
!!!OTL: Et in Spiritum
**kern	**kern	**kern	**kern	**kern
*Ibass	*Itenor	*Itenor	*Icalto	*Icant
!Bassus	!Tenor 2	!Tenor 1	!Altus	!Cantus
*clefF4	*clefGv2	*clefGv2	*clefG2	*clefG2
*k[b-]	*k[b-]	*k[b-]	*k[b-]	*k[b-]
*F:ion	*F:ion	*F:ion	*F:ion	*F:ion
*M4/2	*M4/2	*M4/2	*M4/2	*M4/2
=169	=169	=169	=169	=169
0r	1.B-	0r	0r	1r
.	.	.	.	[1f
.	2B-	.	.	.
=170	=170	=170	=170	=170
1r	2.d	0r	1.f	2f]
.	.	.	.	2f
.	4e	.	.	.
[1F	2f	.	.	2.a
.	2d	.	2f	.
.	.	.	.	4b-
=171	=171	=171	=171	=171
2F]	2c	0r	2.a	1cc
2F	1f	.	.	.
.	.	.	4b-	.
2.A	.	.	[1cc	1a
.	4e	.	.	.
4B-	4d	.	.	.
=172	=172	=172	=172	=172
2c	2e	0r	2cc]	2g
1d	2f	.	2a	4f
.	.	.	.	4g
.	2d	.	2f	4a
.	.	.	.	4b-
2c	2e	.	4g	4cc
.	.	.	4a	4a
=173	=173	=173	=173	=173
2B-	2f	0r	2b-	2dd
2G	2.g	.	2b-	2dd
1A	.	.	1a	1cc
.	4f	.	.	.
.	[2f	.	.	.
=174	=174	=174	=174	=174
1.c	2f]	0r	1g	2r
.	4e	.	.	1cc
.	4d	.	.	.
.	2e	.	1g	.
2B-	2d	.	.	2dd
=175	=175	=175	=175	=175
2A	2e	0r	2.c	2cc
2F	1f	.	.	2a
.	.	.	4d	.
1G	.	.	1B-	1b-
.	2e	.	.	.
=176	=176	=176	=176	=176
1F	2.f	2r	1c	1a
.	.	1F	.	.
.	4g	.	.	.
1r	1a	.	2r	2r
.	.	2F	[2c	[2f
=177	=177	=177	=177	=177
0r	1r	2A	2c]	2f]
.	.	2B-	2d	2f
.	2r	2c	2e	2a
.	2d	2d	2f	2b-
=178	=178	=178	=178	=178
0r	2e	2c	2.g	2cc
.	1g	2B-	.	2dd
.	.	.	4g	.
.	.	1A	1c	1cc
.	2f	.	.	.
=179	=179	=179	=179	=179
1r	2g	1G	2d	2b-
.	2d	.	2B-	2g
2r	1f	1F	1c	2.a
[2F	.	.	.	.
.	.	.	.	4b-
=180	=180	=180	=180	=180
2F]	1f	2r	2A	1.cc
2F	.	1c	2.a	.
2A	1r	.	.	.
.	.	.	4a	.
2B-	.	2d	[2g	2b-
=181	=181	=181	=181	=181
2c	0r	2e	2g]	1a
2d	.	2f	1f	.
1c	.	2g	.	2.cc
.	.	2a	[2e	.
.	.	.	.	8b-
.	.	.	.	8cc
=182	=182	=182	=182	=182
2B-	0r	1g	4e]	2dd
.	.	.	4d	.
2G	.	.	1d	2b-
1A	.	2f	.	1a
.	.	2e	2c#	.
=183	=183	=183	=183	=183
1D	2r	2f	2d	2a
.	1f	2d	1a	2f
1r	.	1c	.	1cc
.	2e	.	2g	.
=184	=184	=184	=184	=184
0r	2f	0r	2a	0dd
.	2.g	.	2.b-	.
.	4f	.	4a	.
.	4d	.	4f	.
.	4e	.	4g	.
=185	=185	=185	=185	=185
0r	2f	0r	2a	1cc
.	2e	.	2g	.
.	2.d	.	2.f	2b-
.	.	.	.	[2a
.	4c	.	4e	.
=186	=186	=186	=186	=186
0r	2B-	2r	2d	2a]
.	2B-	1d	2d	2g
.	[1A	.	1e	2.a
.	.	[2c	.	.
.	.	.	.	4b-
=187	=187	=187	=187	=187
1F	1A]	2c]	1a	0cc
.	.	1f	.	.
1c	1r	.	2g	.
.	.	2e	[2cc	.
=188	=188	=188	=188	=188
0d	0r	1.f	2cc]	1r
.	.	.	2b-	.
.	.	.	2a	1f
.	.	4e	[2b-	.
.	.	4d	.	.
=189	=189	=189	=189	=189
1c	0r	1e	4b-]	1cc
.	.	.	4a	.
.	.	.	1a	.
1B-	.	1d	.	1dd
.	.	.	2g	.
=190	=190	=190	=190	=190
1A	2r	1e	2a	4cc
.	.	.	.	4dd
.	2c	.	1cc	4ee
.	.	.	.	4cc
1r	1g	1r	.	2.dd
.	.	.	2b-	.
.	.	.	.	4ee
=191	=191	=191	=191	=191
0r	1a	0r	1cc	2ff
.	.	.	.	1ee
.	2g	.	2b-	.
.	2f	.	2a	[2dd
=192	=192	=192	=192	=192
0r	1e	1c	2.g	4dd]
.	.	.	.	4cc
.	.	.	.	1cc
.	.	.	8f	.
.	.	.	8g	.
.	1d	1f	2a	.
.	.	.	2f	2b
=193	=193	=193	=193	=193
1F	1c	1a	2r	1cc
.	.	.	1f	.
1c	1r	[1g	.	2r
.	.	.	2e	2cc
=194	=194	=194	=194	=194
1d	0r	2g]	2d	2b-
.	.	2f	2f	2a
2c	.	2e	1g	2cc
2B-	.	2d	.	2g
=195	=195	=195	=195	=195
1A	2r	1c	4f	4a
.	.	.	4e	4b-
.	2c	.	4e	2.cc
.	.	.	8d	.
.	.	.	8c	.
1G	1g	1r	1d	.
.	.	.	.	8b
.	.	.	.	8a
.	.	.	.	2b
=196	=196	=196	=196	=196
1F	1a	2r	2f	1cc
.	.	2F	1f	.
2r	[1g	1c	.	2r
2C	.	.	2e	[2cc
=197	=197	=197	=197	=197
1G	1g]	1d	2d	2cc]
.	.	.	2G	2b-
1A	2f	1c	2r	2a
.	2e	.	2c	2a
=198	=198	=198	=198	=198
1G	1g	1B-	4d	2b-
.	.	.	4c	.
.	.	.	4d	2g
.	.	.	4e	.
2F	2.c	2A	2f	2a
2E	.	2G	[2f	[2cc
.	4B-	.	.	.
=199	=199	=199	=199	=199
1F	2A	2.A	4f]	4cc]
.	.	.	4f	4b-
.	2F	.	1f	2a
.	.	4B-	.	.
1C	1G	1c	.	1g
.	.	.	2e	.
=200	=200	=200	=200	=200
1F	2F	2c	1f	1a
.	2c	2A	.	.
1r	2d	2B-	1f	1r
.	2c	2A	.	.
=201	=201	=201	=201	=201
0r	1.d	1.B-	2g	0r
.	.	.	2f	.
.	.	.	1g	.
.	[2e	[2c	.	.
=202	=202	=202	=202	=202
0r	2e]	2c]	2a	0r
.	2f	2d	2b-	.
.	2e	2c	2a	.
.	2d	2B-	2g	.
=203	=203	=203	=203	=203
2r	2e	1A	2a	2r
2F	2c	.	2f	2a
2G	2g	1r	2.d	2b-
2F	2a	.	.	2a
.	.	.	4d	.
=204	=204	=204	=204	=204
2.G	2.g	0r	2d	2.b-
.	.	.	2d	.
4G	4g	.	.	4b-
1A	2f	.	1a	1cc
.	2e	.	.	.
=205	=205	=205	=205	=205
1B-	2d	0r	1f	1dd
.	2B-	.	.	.
2A	4c	.	2f	2cc
.	4A	.	.	.
2G	[2d	.	2g	2b-
=206	=206	=206	=206	=206
0A	2d]	1r	0e	0a
.	4c#	.	.	.
.	4B	.	.	.
.	2c#	2r	.	.
.	2c#	2e	.	.
=207	=207	=207	=207	=207
0r	2d	2f	0r	1a
.	2c#	2e	.	.
.	[1d	[1f	.	2b-
.	.	.	.	2a
=208	=208	=208	=208	=208
0r	2d]	2f]	0r	2b-
.	2e	2g	.	2cc
.	2f	2a	.	2dd
.	2e	2g	.	[2cc
=209	=209	=209	=209	=209
0r	1d	2.f	2r	2cc]
.	.	.	2f	2b
.	.	4d	.	.
.	2c	2e	2g	[1cc
.	2F	[2f	2f	.
=210	=210	=210	=210	=210
1r	1c	2f]	1g	0cc]
.	.	2e	.	.
2r	2F	2f	2a	.
2F	2A	2f	2cc	.
=211	=211	=211	=211	=211
2G	2B-	2d	2b-	0r
2F	2c	2f	2a	.
1G	1g	2e	1b-	.
.	.	[2d	.	.
=212	=212	=212	=212	=212
1A	2e	2d]	2.a	0r
.	2.f	2c	.	.
.	.	.	4g	.
2B-	.	1d	2f	.
.	4e	.	.	.
[2B-	4d	.	[2g	.
.	4c	.	.	.
=213	=213	=213	=213	=213
2B-]	2d	1r	4g]	0r
.	.	.	4f	.
2A	2c	.	1f	.
1G	2r	1B-	.	.
.	[2B-	.	2e	.
=214	=214	=214	=214	=214
1F	2B-]	1c	0f	1r
.	2A	.	.	.
2r	1B-	1d	.	1b-
[2B-	.	.	.	.
=215	=215	=215	=215	=215
2B-]	1F	1c	2r	1cc
2A	.	.	1f	.
1B-	2r	1r	.	1dd
.	2B-	.	2g	.
=216	=216	=216	=216	=216
1F	0c	2r	1a	1cc
.	.	1f	.	.
1r	.	.	1g	2r
.	.	2e	.	[2cc
=217	=217	=217	=217	=217
0r	1d	1f	2r	2cc]
.	.	.	1f	2b-
.	1c	2g	.	[1cc
.	.	[2c	2e	.
=218	=218	=218	=218	=218
0r	2A	2c]	1f	2cc]
.	2B-	1d	.	2f
.	2B-	.	2B-	2g
.	2A	[2f	2c	2a
=219	=219	=219	=219	=219
0r	1G	2f]	2d	1.b-
.	.	2e	4B-	.
.	.	.	4c	.
.	1F	2d	4d	.
.	.	.	4e	.
.	.	[2c	2f	[2a
=220	=220	=220	=220	=220
0r	2G	2c]	2e	2a]
.	2G	2B	2.d	1g
.	1A	1c	.	.
.	.	.	4c	.
.	.	.	[2c	2f
=221	=221	=221	=221	=221
1r	1G	1d	2c]	1g
.	.	.	2B	.
1F	2r	2f	[1c	2.a
.	[2c	2f	.	.
.	.	.	.	4b-
=222	=222	=222	=222	=222
1A	2c]	2e	1c]	0cc
.	1f	2a	.	.
2c	.	1g	1r	.
2c	2e	.	.	.
=223	=223	=223	=223	=223
0d	2f	2f	0r	2r
.	2.a	2d	.	2f
.	.	2f	.	1a
.	4g	.	.	.
.	[2f	2f	.	.
=224	=224	=224	=224	=224
1c	2f]	0g	0r	2cc
.	2e	.	.	2cc
2B-	2d	.	.	1dd
2G	2B-	.	.	.
=225	=225	=225	=225	=225
2A	4c	1e	1c	1cc
.	4d	.	.	.
2.c	4e	.	.	.
.	4f	.	.	.
.	2g	1c	1e	2r
4B-	.	.	.	.
2A	2c	.	.	[2cc
=226	=226	=226	=226	=226
1G	1d	1r	2g	2cc]
.	.	.	2g	2b-
[1F	1f	2r	[1a	4cc
.	.	.	.	4b-
.	.	2F	.	4a
.	.	.	.	4g
=227	=227	=227	=227	=227
1F]	2r	1A	1a]	1f
.	2f	.	.	.
1r	2f	2c	1g	2r
.	2e	2c	.	[2cc
=228	=228	=228	=228	=228
0r	2a	1d	2f	2cc]
.	2f	.	2d	2b
.	1g	1c	2e	4cc
.	.	.	.	4dd
.	.	.	[2g	4ee
.	.	.	.	4cc
=229	=229	=229	=229	=229
0r	2r	2B	4g]	2dd
.	.	.	4f	.
.	2.g	2c	2e	1cc
.	.	1G	1d	.
.	4f	.	.	.
.	2g	.	.	2b
=230	=230	=230	=230	=230
1C	4e	2.c	1c	1cc
.	4f	.	.	.
.	4g	.	.	.
.	4e	4B-	.	.
1D	2f	2A	2r	1r
.	2F	2d	[2f	.
=231	=231	=231	=231	=231
1F	1A	1c	2f]	1cc
.	.	.	2a	.
1C	2c	2r	2g	1ee
.	2c	2g	[2cc	.
=232	=232	=232	=232	=232
1G	1d	1g	4cc]	2gg
.	.	.	8b	.
.	.	.	8a	.
.	.	.	2b	2dd
1C	1c	2e	2cc	2ee
.	.	2e	2g	2cc
=233	=233	=233	=233	=233
2.G	2B-	2d	2.b-	2dd
.	2G	2g	.	2ee
4G	.	.	4b-	.
[1F	2A	2.c	2a	1ff
.	[2c	.	[2a	.
.	.	4B-	.	.
=234	=234	=234	=234	=234
1F]	4c]	1A	4a]	0cc
.	4B-	.	4g	.
.	2A	.	2.f	.
1C	1G	1c	.	.
.	.	.	8e	.
.	.	.	8d	.
.	.	.	2e	.
=235	=235	=235	=235	=235
0F	0F	0c	0f	0a
==	==	==	==	==
*-	*-	*-	*-	*-
!!!CDT: 1525/^1526/-1594/2/2
!!!OCY: Italia
!!!AGN: Mass (Paraphrase)
!!!AST: renaissance, vocal
!!!ASW: Antiphon
!!!PWK: Masses, Book 11
!!!RNB: Cadence finals: C
!!!YOR: Le Opere Complete, v. 28, p. 32
!!!YOO: Rome, Italy: Fratelli Scalera
!!!END: 1992//
!!!EED: John Miller
!!!YEC: Copyright 2000, John Miller
!!!YEN: United States of America
!!!YEM: Rights to all derivative electronic formats reserved.
!!!YEM: Refer to licensing agreement for further details.
!!!YEM: This file must be accompanied by the licensing agreement.
!!!YEM: A copy of the licensing agreement may be found at http://www.music-cog.ohio-state.edu/HumdrumDatabases/Palestrina/license.txt
!!!EMD: converted to Humdrum by Bret Aarden
